build/img/8dioliy8y7ybu9f2i69e5mmabjl42cc0 1.svg

<svg width="737" height="258" viewBox="0 0 737 258" fill="none" xmlns="http://www.w3.org/2000/svg">
<g clip-path="url(#clip0_8330_9870)">
<path d="M248.092 14.9361C248.092 21.1002 243.632 25.9666 234.669 25.9666V27.2643C235.642 27.5076 236.779 28.0348 237.548 28.562L237.305 30.103H227.37L227.087 28.562C227.856 28.0348 229.033 27.5076 230.006 27.2643V25.9666C220.882 25.9666 216.543 21.2624 216.543 15.5038C216.543 9.33972 221.044 4.47335 230.006 4.47335V3.17564C229.033 2.93233 227.856 2.40513 227.087 1.87794L227.37 0.336914H237.305L237.548 1.87794C236.779 2.40513 235.642 2.93233 234.669 3.17564V4.47335C243.754 4.47335 248.092 9.17752 248.092 14.9361ZM221.531 15.3416C221.531 20.4919 224.288 23.4523 230.128 23.4523V6.98766C224.45 6.98766 221.531 10.1103 221.531 15.3416ZM243.104 15.0983C243.104 9.94808 240.387 6.98766 234.507 6.98766V23.4523C240.185 23.4523 243.104 20.3297 243.104 15.0983ZM276.385 21.4246L278.372 21.6679L277.845 29.4136H257.447L257.163 27.8726C257.934 27.3454 259.11 26.8588 260.083 26.6155V3.82449C259.11 3.58117 257.934 3.09454 257.163 2.56734L257.447 1.02632H277.602L277.926 8.77203L275.939 9.01533C275.128 7.75817 274.357 6.01438 273.911 3.74339H264.949V13.7195L273.506 12.7867V16.7204L264.949 15.8688V26.6966H274.155C274.682 24.385 275.452 22.6818 276.385 21.4246ZM308.637 20.2486L310.664 20.3703L310.948 28.2782C309.285 29.1703 305.636 29.8192 302.31 29.8192C293.875 29.8192 288.036 24.02 288.036 15.6255C288.036 6.74434 293.835 0.620786 302.31 0.620786C305.636 0.620786 309.285 1.26964 311.151 2.24292L310.664 9.86698L308.677 9.98858C307.826 8.48815 307.257 6.25769 307.015 3.94616C305.798 3.41896 304.257 3.1351 302.553 3.1351C296.835 3.1351 293.227 7.83928 293.227 15.2199C293.227 22.6007 296.835 27.3048 302.553 27.3048C304.378 27.3048 305.838 27.0615 307.055 26.5344C307.298 24.2228 307.866 21.8302 308.637 20.2486ZM339.946 3.74339H334.472V26.6155C335.445 26.8588 336.621 27.3454 337.391 27.8726L337.107 29.4136H326.97L326.686 27.8726C327.456 27.3454 328.632 26.8588 329.605 26.6155V3.74339H324.131C323.645 6.05493 322.874 7.83928 322.022 9.17752L320.035 8.89364L320.4 1.02632H343.677L344.042 8.89364L342.055 9.17752C341.203 7.83928 340.433 6.05493 339.946 3.74339ZM362.805 29.4136H352.951L352.667 27.8726C353.437 27.3454 354.613 26.8588 355.586 26.6155V3.82449C354.613 3.58117 353.437 3.09454 352.667 2.56734L352.951 1.02632H362.805L363.088 2.56734C362.358 3.05398 361.263 3.58117 360.331 3.82449V21.3029H360.574L372.821 4.10837V3.82449C371.888 3.58117 370.753 3.05398 370.063 2.56734L370.307 1.02632H380.201L380.445 2.56734C379.715 3.09454 378.539 3.58117 377.566 3.82449V26.6155C378.539 26.8588 379.715 27.3454 380.445 27.8726L380.201 29.4136H370.307L370.063 27.8726C370.753 27.3859 371.888 26.8588 372.821 26.6155V9.13702H372.537L360.331 26.3316V26.6155C361.263 26.8588 362.358 27.3859 363.088 27.8726L362.805 29.4136ZM406.013 14.2062V14.4901C410.19 15.2605 412.785 17.8154 412.785 21.6274C412.785 26.4533 408.852 29.4136 401.917 29.4136H390.157L389.874 27.8726C390.644 27.3454 391.82 26.8588 392.793 26.6155V3.82449C391.82 3.58117 390.644 3.09454 389.874 2.56734L390.157 1.02632H401.472C407.757 1.02632 411.569 3.74339 411.569 8.12314C411.569 11.2457 409.5 13.5167 406.013 14.2062ZM406.662 8.52866C406.662 5.32497 404.594 3.54063 400.985 3.54063H397.578V13.4762H400.985C404.553 13.4762 406.662 11.6107 406.662 8.52866ZM397.578 26.8994H401.39C405.567 26.8994 407.797 24.9122 407.797 21.3841C407.797 17.8559 405.526 15.8688 401.39 15.8688H397.578V26.8994ZM435.535 1.02632L444.822 26.6155C445.876 26.8588 446.93 27.3454 447.661 27.8726L447.417 29.4136H437.238L436.954 27.8726C437.644 27.3859 438.658 26.8588 439.509 26.6155L437.441 20.7353H427.425L425.398 26.6155C426.249 26.8588 427.262 27.3859 427.952 27.8726L427.668 29.4136H419.518L419.274 27.8726C420.004 27.3454 421.058 26.8588 422.113 26.6155L431.318 1.02632H435.535ZM432.291 6.66322L428.357 18.0587H436.508L432.534 6.66322H432.291ZM477.197 3.82449V26.6155C478.17 26.8588 479.305 27.3454 480.076 27.8726L479.833 29.4136H469.817L469.533 27.8726C470.262 27.3859 471.357 26.8588 472.33 26.6155V3.74339H464.586L464.342 9.33972C463.693 23.5334 461.747 29.8192 456.678 29.8192C455.705 29.8192 454.65 29.4947 454.042 29.0081V24.75H458.948C460.206 22.6413 461.138 17.1259 461.463 9.33972L461.706 3.82449C460.732 3.58117 459.597 3.09454 458.827 2.56734L459.07 1.02632H479.833L480.076 2.56734C479.305 3.09454 478.17 3.58117 477.197 3.82449ZM497.282 12.0163H501.174C507.947 12.0163 511.961 15.2605 511.961 20.6947C511.961 26.0883 507.905 29.4136 501.215 29.4136H489.779L489.496 27.8726C490.265 27.3454 491.442 26.8588 492.415 26.6155V3.82449C491.442 3.58117 490.265 3.09454 489.496 2.56734L489.779 1.02632H499.917L500.161 2.56734C499.39 3.09454 498.255 3.58117 497.282 3.82449V12.0163ZM497.282 26.8994H500.688C504.621 26.8994 506.932 24.5878 506.932 20.6947C506.932 16.6799 504.784 14.5306 500.688 14.5306H497.282V26.8994ZM21.119 142.866H0.87001L0.113037 138.892C2.00547 137.568 4.74949 136.432 7.0204 135.864V83.6315C4.74949 83.0638 2.00547 81.9283 0.113037 80.6035L0.87001 76.6293H20.9298L40.1379 118.075H40.8003L59.1568 76.6293H80.0682L80.8251 80.6035C78.9327 81.9283 76.1886 83.0638 73.9177 83.6315V135.864C76.1886 136.432 78.9327 137.568 80.8251 138.892L80.0682 142.866H54.0473L53.3849 138.892C55.1827 137.568 57.9268 136.432 60.1977 135.864V94.4187H59.5353L41.5572 134.823H34.5552L15.631 94.4187H14.9686V135.864C17.2395 136.432 19.9835 137.568 21.7813 138.892L21.119 142.866ZM127.435 143.813C108.038 143.813 94.6964 130.187 94.6964 110.694C94.6964 90.0663 108.227 75.6831 127.435 75.6831C146.833 75.6831 160.269 89.2142 160.269 108.802C160.269 129.429 146.738 143.813 127.435 143.813ZM127.435 137.284C138.506 137.284 145.602 126.78 145.602 109.748C145.602 92.6211 138.506 82.2122 127.435 82.2122C116.459 82.2122 109.268 92.6211 109.268 109.748C109.268 126.78 116.459 137.284 127.435 137.284ZM222.937 121.103L228.425 121.387L229.087 140.028C224.924 142.204 216.313 143.813 208.554 143.813C188.021 143.813 174.396 130.471 174.396 110.694C174.396 89.8764 188.116 75.6831 208.554 75.6831C216.408 75.6831 225.019 77.2917 229.56 79.6573L228.425 97.6357L223.031 97.9198C220.855 94.2296 219.53 89.2142 218.963 84.01C216.313 82.8745 213.096 82.2122 209.5 82.2122C196.916 82.2122 188.968 92.9043 188.968 109.748C188.968 126.686 196.916 137.284 209.5 137.284C213.285 137.284 216.408 136.716 218.963 135.58C219.625 130.282 220.949 124.982 222.937 121.103ZM300.582 135.864C302.759 136.432 305.409 137.662 307.206 138.892L306.544 142.866H289.701C282.51 134.067 276.17 123.279 271.723 113.438L265.384 113.249V135.864C267.559 136.432 270.114 137.662 271.723 138.892L271.06 142.866H245.512L244.756 138.892C246.649 137.568 249.392 136.432 251.663 135.864V83.6315C249.392 83.0638 246.649 81.9283 244.756 80.6035L245.512 76.6293H271.06L271.723 80.6035C270.114 81.8337 267.559 83.0638 265.384 83.6315V106.057L272.196 105.111L284.024 85.9971C288.376 78.5218 291.499 75.6831 296.892 75.6831C299.352 75.6831 301.718 76.5347 302.948 77.2917V88.3628H291.026L280.239 104.828C285.632 115.425 293.202 126.686 300.582 135.864ZM348.793 143.813C329.395 143.813 316.054 130.187 316.054 110.694C316.054 90.0663 329.584 75.6831 348.793 75.6831C368.19 75.6831 381.626 89.2142 381.626 108.802C381.626 129.429 368.095 143.813 348.793 143.813ZM348.793 137.284C359.863 137.284 366.96 126.78 366.96 109.748C366.96 92.6211 359.863 82.2122 348.793 82.2122C337.816 82.2122 330.625 92.6211 330.625 109.748C330.625 126.78 337.816 137.284 348.793 137.284ZM434.642 107.383V108.045C444.388 109.842 451.107 115.804 451.107 124.793C451.107 135.864 441.644 142.866 425.086 142.866H396.226L395.469 138.892C397.361 137.568 400.105 136.432 402.377 135.864V83.6315C400.105 83.0638 397.361 81.9283 395.469 80.6035L396.226 76.6293H423.951C438.995 76.6293 448.268 83.0638 448.268 93.1884C448.268 100.57 443.064 105.773 434.642 107.383ZM434.548 94.3237C434.548 87.2275 429.911 83.1584 422.058 83.1584H415.812V105.49H422.152C429.816 105.49 434.548 101.326 434.548 94.3237ZM415.812 136.337H423.098C432.182 136.337 437.102 131.795 437.102 123.942C437.102 116.087 432.088 111.64 423.098 111.64H415.812V136.337ZM513.182 121.103L518.671 121.387L519.333 140.028C515.169 142.204 506.558 143.813 498.799 143.813C478.267 143.813 464.641 130.471 464.641 110.694C464.641 89.8764 478.362 75.6831 498.799 75.6831C506.653 75.6831 515.264 77.2917 519.806 79.6573L518.671 97.6357L513.277 97.9198C511.101 94.2296 509.776 89.2142 509.208 84.01C506.558 82.8745 503.341 82.2122 499.746 82.2122C487.161 82.2122 479.213 92.9043 479.213 109.748C479.213 126.686 487.161 137.284 499.746 137.284C503.531 137.284 506.653 136.716 509.208 135.58C509.87 130.282 511.195 124.982 513.182 121.103ZM590.828 135.864C593.004 136.432 595.654 137.662 597.451 138.892L596.789 142.866H579.947C572.756 134.067 566.416 123.279 561.969 113.438L555.629 113.249V135.864C557.806 136.432 560.36 137.662 561.969 138.892L561.307 142.866H535.759L535.001 138.892C536.894 137.568 539.638 136.432 541.909 135.864V83.6315C539.638 83.0638 536.894 81.9283 535.001 80.6035L535.759 76.6293H561.307L561.969 80.6035C560.36 81.8337 557.806 83.0638 555.629 83.6315V106.057L562.442 105.111L574.269 85.9971C578.622 78.5218 581.744 75.6831 587.138 75.6831C589.598 75.6831 591.964 76.5347 593.193 77.2917V88.3628H581.271L570.484 104.828C575.878 115.425 583.448 126.686 590.828 135.864ZM639.038 143.813C619.64 143.813 606.299 130.187 606.299 110.694C606.299 90.0663 619.83 75.6831 639.038 75.6831C658.435 75.6831 671.872 89.2142 671.872 108.802C671.872 129.429 658.341 143.813 639.038 143.813ZM639.038 137.284C650.109 137.284 657.206 126.78 657.206 109.748C657.206 92.6211 650.109 82.2122 639.038 82.2122C628.062 82.2122 620.871 92.6211 620.871 109.748C620.871 126.78 628.062 137.284 639.038 137.284ZM731.322 123.563L736.716 124.226L735.486 142.866H686.471L685.715 138.892C687.607 137.568 690.351 136.432 692.622 135.864V83.6315C690.351 83.0638 687.607 81.9283 685.715 80.6035L686.471 76.6293H734.917L735.675 95.27L730.281 95.9331C728.295 92.9043 726.496 89.0251 725.267 83.9154H706.342V105.679L725.361 103.408V113.912L706.342 111.64V135.58H725.834C727.064 130.471 729.051 126.591 731.322 123.563ZM144.241 216.577H153.798C170.072 216.577 179.251 224.999 179.251 236.448C179.251 247.898 170.072 256.319 153.798 256.319H124.371L123.613 252.345C125.506 251.02 128.25 249.884 130.52 249.317V197.084C128.25 196.517 125.506 195.381 123.613 194.056L124.371 190.082H172.817L173.763 208.723L168.464 209.386C166.382 206.357 164.49 202.478 163.259 197.368H144.241V216.577ZM144.241 249.79H152.189C160.231 249.79 165.247 244.586 165.247 236.448C165.247 228.311 160.231 223.201 152.189 223.201H144.241V249.79ZM225.857 190.082L247.336 249.317C249.607 249.884 251.972 251.02 253.771 252.345L253.014 256.319H227.087L226.33 252.345C228.034 251.115 230.493 249.884 232.481 249.317L228.128 236.826H205.608L201.256 249.317C203.243 249.884 205.703 251.115 207.406 252.345L206.649 256.319H187.157L186.4 252.345C188.198 251.02 190.469 249.884 192.834 249.317L214.219 190.082H225.857ZM216.49 205.222L207.973 229.824H225.762L217.247 205.222H216.49ZM290.78 231.906H283.589V249.317C286.143 249.79 289.549 251.115 291.82 252.345L291.064 256.319H263.718L262.961 252.345C264.853 251.02 267.597 249.884 269.868 249.317V197.084C267.597 196.517 264.853 195.381 262.961 194.056L263.718 190.082H290.78C307.054 190.082 316.706 197.652 316.706 210.994C316.706 224.241 307.054 231.906 290.78 231.906ZM302.702 210.994C302.702 201.91 297.687 196.611 289.076 196.611H283.589V225.377H289.076C297.687 225.377 302.702 220.078 302.702 210.994ZM362.562 257.265C343.165 257.265 329.823 243.639 329.823 224.146C329.823 203.519 343.354 189.136 362.562 189.136C381.959 189.136 395.396 202.667 395.396 222.255C395.396 242.882 381.865 257.265 362.562 257.265ZM362.562 250.736C373.633 250.736 380.729 240.233 380.729 223.201C380.729 206.074 373.633 195.665 362.562 195.665C351.586 195.665 344.395 206.074 344.395 223.201C344.395 240.233 351.586 250.736 362.562 250.736ZM465.065 249.317C467.242 249.884 469.891 251.115 471.689 252.345L471.026 256.319H454.184C446.993 247.519 440.653 236.732 436.206 226.891L429.866 226.702V249.317C432.042 249.884 434.597 251.115 436.206 252.345L435.543 256.319H409.995L409.238 252.345C411.131 251.02 413.875 249.884 416.146 249.317V197.084C413.875 196.517 411.131 195.381 409.238 194.056L409.995 190.082H435.543L436.206 194.056C434.597 195.287 432.042 196.517 429.866 197.084V219.51L436.679 218.564L448.507 199.45C452.859 191.975 455.982 189.136 461.375 189.136C463.835 189.136 466.201 189.987 467.431 190.744V201.816H455.509L444.722 218.281C450.115 228.878 457.684 240.138 465.065 249.317ZM537.927 249.317C540.103 249.884 542.753 251.115 544.55 252.345L543.888 256.319H527.046C519.855 247.519 513.515 236.732 509.068 226.891L502.728 226.702V249.317C504.904 249.884 507.459 251.115 509.068 252.345L508.405 256.319H482.858L482.1 252.345C483.993 251.02 486.737 249.884 489.007 249.317V197.084C486.737 196.517 483.993 195.381 482.1 194.056L482.858 190.082H508.405L509.068 194.056C507.459 195.287 504.904 196.517 502.728 197.084V219.51L509.541 218.564L521.368 199.45C525.72 191.975 528.843 189.136 534.237 189.136C536.697 189.136 539.062 189.987 540.292 190.744V201.816H528.37L517.583 218.281C522.977 228.878 530.547 240.138 537.927 249.317ZM586.137 257.265C566.739 257.265 553.398 243.639 553.398 224.146C553.398 203.519 566.929 189.136 586.137 189.136C605.534 189.136 618.971 202.667 618.971 222.255C618.971 242.882 605.44 257.265 586.137 257.265ZM586.137 250.736C597.208 250.736 604.304 240.233 604.304 223.201C604.304 206.074 597.208 195.665 586.137 195.665C575.161 195.665 567.97 206.074 567.97 223.201C567.97 240.233 575.161 250.736 586.137 250.736Z" fill="white"/>
</g>
<defs>
<clipPath id="clip0_8330_9870">
<rect width="737" height="258" fill="white"/>
</clipPath>
</defs>
</svg>

<svg width="737" height="258" viewBox="0 0 737 258" fill="none" xmlns="http://www.w3.org/2000/svg"><g clip-path="url(#clip0_8330_9870)"><path d="M248.092 14.936c0 6.164-4.46 11.03-13.423 11.03v1.298c.973.244 2.11.77 2.879 1.298l-.243 1.541h-9.935l-.283-1.541c.769-.527 1.946-1.054 2.919-1.298v-1.297c-9.124 0-13.463-4.705-13.463-10.463 0-6.164 4.501-11.03 13.463-11.03V3.175c-.973-.244-2.15-.77-2.919-1.298l.283-1.541h9.935l.243 1.54a9.764 9.764 0 01-2.879 1.299v1.297c9.085 0 13.423 4.705 13.423 10.463zm-26.561.406c0 5.15 2.757 8.11 8.597 8.11V6.988c-5.678 0-8.597 3.122-8.597 8.354zm21.573-.244c0-5.15-2.717-8.11-8.597-8.11v16.464c5.678 0 8.597-3.122 8.597-8.354zm33.281 6.327l1.987.243-.527 7.746h-20.398l-.284-1.541c.771-.528 1.947-1.014 2.92-1.258V3.826c-.973-.244-2.149-.73-2.92-1.258l.284-1.54h20.155l.324 7.745-1.987.243c-.811-1.257-1.582-3-2.028-5.272h-8.962v9.976l8.557-.932v3.933l-8.557-.851v10.828h9.206c.527-2.312 1.297-4.015 2.23-5.272zm32.252-1.176l2.027.121.284 7.908c-1.663.892-5.312 1.541-8.638 1.541-8.435 0-14.274-5.799-14.274-14.193 0-8.882 5.799-15.005 14.274-15.005 3.326 0 6.975.649 8.841 1.622l-.487 7.624-1.987.122c-.851-1.5-1.42-3.731-1.662-6.043-1.217-.527-2.758-.81-4.462-.81-5.718 0-9.326 4.703-9.326 12.084 0 7.38 3.608 12.085 9.326 12.085 1.825 0 3.285-.244 4.502-.77.243-2.312.811-4.705 1.582-6.286zm31.309-16.506h-5.474v22.873c.973.243 2.149.73 2.919 1.257l-.284 1.54H326.97l-.284-1.54c.77-.528 1.946-1.014 2.919-1.258V3.744h-5.474c-.486 2.312-1.257 4.096-2.109 5.435l-1.987-.284.365-7.868h23.277l.365 7.868-1.987.284c-.852-1.339-1.622-3.123-2.109-5.435zm22.859 25.67h-9.854l-.284-1.54c.77-.528 1.946-1.014 2.919-1.258V3.826c-.973-.244-2.149-.73-2.919-1.258l.284-1.54h9.854l.283 1.54c-.73.487-1.825 1.014-2.757 1.257v17.479h.243l12.247-17.195v-.284c-.933-.243-2.068-.77-2.758-1.257l.244-1.54h9.894l.244 1.54c-.73.528-1.906 1.014-2.879 1.257v22.791c.973.244 2.149.73 2.879 1.258l-.244 1.54h-9.894l-.244-1.54c.69-.487 1.825-1.014 2.758-1.258V9.137h-.284l-12.206 17.195v.284c.932.243 2.027.77 2.757 1.257l-.283 1.54zm43.208-15.207v.284c4.177.77 6.772 3.325 6.772 7.137 0 4.826-3.933 7.787-10.868 7.787h-11.76l-.283-1.541c.77-.528 1.946-1.014 2.919-1.258V3.826c-.973-.244-2.149-.73-2.919-1.258l.283-1.54h11.315c6.285 0 10.097 2.716 10.097 7.096 0 3.123-2.069 5.394-5.556 6.083zm.649-5.677c0-3.204-2.068-4.988-5.677-4.988h-3.407v9.935h3.407c3.568 0 5.677-1.865 5.677-4.947zm-9.084 18.37h3.812c4.177 0 6.407-1.987 6.407-5.515 0-3.528-2.271-5.515-6.407-5.515h-3.812v11.03zm37.957-25.873l9.287 25.59c1.054.243 2.108.73 2.839 1.257l-.244 1.54h-10.179l-.284-1.54c.69-.487 1.704-1.014 2.555-1.258l-2.068-5.88h-10.016l-2.027 5.88c.851.244 1.864.77 2.554 1.258l-.284 1.54h-8.15l-.244-1.54c.73-.528 1.784-1.014 2.839-1.258l9.205-25.589h4.217zm-3.244 5.637l-3.934 11.396h8.151l-3.974-11.396h-.243zm44.906-2.839v22.791c.973.244 2.108.73 2.879 1.258l-.243 1.54h-10.016l-.284-1.54c.729-.487 1.824-1.014 2.797-1.258V3.744h-7.744l-.244 5.597c-.649 14.193-2.595 20.48-7.664 20.48-.973 0-2.028-.325-2.636-.812V24.75h4.906c1.258-2.109 2.19-7.624 2.515-15.41l.243-5.516c-.974-.243-2.109-.73-2.879-1.257l.243-1.54h20.763l.243 1.54c-.771.528-1.906 1.014-2.879 1.257zm20.085 8.192h3.892c6.773 0 10.787 3.245 10.787 8.679 0 5.393-4.056 8.719-10.746 8.719h-11.436l-.283-1.541c.769-.528 1.946-1.014 2.919-1.258V3.826c-.973-.244-2.15-.73-2.919-1.258l.283-1.54h10.138l.244 1.54c-.771.528-1.906 1.014-2.879 1.257v8.192zm0 14.883h3.406c3.933 0 6.244-2.311 6.244-6.204 0-4.015-2.148-6.164-6.244-6.164h-3.406v12.368zM21.119 142.866H.87l-.757-3.974c1.892-1.324 4.636-2.46 6.907-3.028V83.631c-2.27-.567-5.015-1.703-6.907-3.028L.87 76.63h20.06l19.208 41.446h.662L59.157 76.63h20.911l.757 3.974c-1.892 1.325-4.636 2.46-6.907 3.029v52.232c2.27.568 5.015 1.704 6.907 3.028l-.757 3.974h-26.02l-.663-3.974c1.798-1.324 4.542-2.46 6.813-3.028V94.419h-.663l-17.978 40.404h-7.002L15.631 94.419h-.662v41.445c2.27.568 5.014 1.704 6.812 3.028l-.662 3.974zm106.316.947c-19.397 0-32.739-13.626-32.739-33.119 0-20.628 13.531-35.01 32.739-35.01 19.398 0 32.834 13.53 32.834 33.118 0 20.627-13.531 35.011-32.834 35.011zm0-6.529c11.071 0 18.167-10.504 18.167-27.536 0-17.127-7.096-27.536-18.167-27.536-10.976 0-18.167 10.41-18.167 27.536 0 17.032 7.191 27.536 18.167 27.536zm95.502-16.181l5.488.284.662 18.641c-4.163 2.176-12.774 3.785-20.533 3.785-20.533 0-34.158-13.342-34.158-33.119 0-20.818 13.72-35.01 34.158-35.01 7.854 0 16.465 1.608 21.006 3.973l-1.135 17.979-5.394.284c-2.176-3.69-3.501-8.706-4.068-13.91-2.65-1.136-5.867-1.798-9.463-1.798-12.584 0-20.532 10.692-20.532 27.536 0 16.938 7.948 27.536 20.532 27.536 3.785 0 6.908-.568 9.463-1.704.662-5.298 1.986-10.598 3.974-14.477zm77.645 14.761c2.177.568 4.827 1.798 6.624 3.028l-.662 3.974h-16.843c-7.191-8.799-13.531-19.587-17.978-29.428l-6.339-.189v22.615c2.175.568 4.73 1.798 6.339 3.028l-.663 3.974h-25.548l-.756-3.974c1.893-1.324 4.636-2.46 6.907-3.028V83.631c-2.271-.567-5.014-1.703-6.907-3.028l.756-3.974h25.548l.663 3.974c-1.609 1.23-4.164 2.46-6.339 3.029v22.425l6.812-.946 11.828-19.114c4.352-7.475 7.475-10.314 12.868-10.314 2.46 0 4.826.852 6.056 1.609v11.07h-11.922l-10.787 16.466c5.393 10.597 12.963 21.858 20.343 31.036zm48.211 7.949c-19.398 0-32.739-13.626-32.739-33.119 0-20.628 13.53-35.01 32.739-35.01 19.397 0 32.833 13.53 32.833 33.118 0 20.627-13.531 35.011-32.833 35.011zm0-6.529c11.07 0 18.167-10.504 18.167-27.536 0-17.127-7.097-27.536-18.167-27.536-10.977 0-18.168 10.41-18.168 27.536 0 17.032 7.191 27.536 18.168 27.536zm85.849-29.901v.662c9.746 1.797 16.465 7.759 16.465 16.748 0 11.071-9.463 18.073-26.021 18.073h-28.86l-.757-3.974c1.892-1.324 4.636-2.46 6.908-3.028V83.631c-2.272-.567-5.016-1.703-6.908-3.028l.757-3.974h27.725c15.044 0 24.317 6.435 24.317 16.56 0 7.381-5.204 12.584-13.626 14.194zm-.094-13.06c0-7.095-4.637-11.165-12.49-11.165h-6.246v22.332h6.34c7.664 0 12.396-4.164 12.396-11.166zm-18.736 42.014h7.286c9.084 0 14.004-4.542 14.004-12.395 0-7.855-5.014-12.302-14.004-12.302h-7.286v24.697zm97.37-15.234l5.489.284.662 18.641c-4.164 2.176-12.775 3.785-20.534 3.785-20.532 0-34.158-13.342-34.158-33.119 0-20.818 13.721-35.01 34.158-35.01 7.854 0 16.465 1.608 21.007 3.973l-1.135 17.979-5.394.284c-2.176-3.69-3.501-8.706-4.069-13.91-2.65-1.136-5.867-1.798-9.462-1.798-12.585 0-20.533 10.692-20.533 27.536 0 16.938 7.948 27.536 20.533 27.536 3.785 0 6.907-.568 9.462-1.704.662-5.298 1.987-10.598 3.974-14.477zm77.646 14.761c2.176.568 4.826 1.798 6.623 3.028l-.662 3.974h-16.842c-7.191-8.799-13.531-19.587-17.978-29.428l-6.34-.189v22.615c2.177.568 4.731 1.798 6.34 3.028l-.662 3.974h-25.548l-.758-3.974c1.893-1.324 4.637-2.46 6.908-3.028V83.631c-2.271-.567-5.015-1.703-6.908-3.028l.758-3.974h25.548l.662 3.974c-1.609 1.23-4.163 2.46-6.34 3.029v22.425l6.813-.946 11.827-19.114c4.353-7.475 7.475-10.314 12.869-10.314 2.46 0 4.826.852 6.055 1.609v11.07h-11.922l-10.787 16.466c5.394 10.597 12.964 21.858 20.344 31.036zm48.21 7.949c-19.398 0-32.739-13.626-32.739-33.119 0-20.628 13.531-35.01 32.739-35.01 19.397 0 32.834 13.53 32.834 33.118 0 20.627-13.531 35.011-32.834 35.011zm0-6.529c11.071 0 18.168-10.504 18.168-27.536 0-17.127-7.097-27.536-18.168-27.536-10.976 0-18.167 10.41-18.167 27.536 0 17.032 7.191 27.536 18.167 27.536zm92.284-13.721l5.394.663-1.23 18.64h-49.015l-.756-3.974c1.892-1.324 4.636-2.46 6.907-3.028V83.631c-2.271-.567-5.015-1.703-6.907-3.028l.756-3.974h48.446l.758 18.641-5.394.663c-1.986-3.029-3.785-6.908-5.014-12.018h-18.925v21.764l19.019-2.271v10.504l-19.019-2.272v23.94h19.492c1.23-5.109 3.217-8.989 5.488-12.017zm-587.081 93.014h9.557c16.274 0 25.453 8.422 25.453 19.871 0 11.45-9.179 19.871-25.453 19.871h-29.427l-.758-3.974c1.893-1.325 4.637-2.461 6.907-3.028v-52.233c-2.27-.567-5.014-1.703-6.907-3.028l.758-3.974h48.446l.946 18.641-5.299.663c-2.082-3.029-3.974-6.908-5.205-12.018h-19.018v19.209zm0 33.213h7.948c8.042 0 13.058-5.204 13.058-13.342 0-8.137-5.016-13.247-13.058-13.247h-7.948v26.589zm81.616-59.708l21.479 59.235c2.271.567 4.636 1.703 6.435 3.028l-.757 3.974h-25.927l-.757-3.974c1.704-1.23 4.163-2.461 6.151-3.028l-4.353-12.491h-22.52l-4.352 12.491c1.987.567 4.447 1.798 6.15 3.028l-.757 3.974h-19.492l-.757-3.974c1.798-1.325 4.069-2.461 6.434-3.028l21.385-59.235h11.638zm-9.367 15.14l-8.517 24.602h17.789l-8.515-24.602h-.757zm74.29 26.684h-7.191v17.411c2.554.473 5.96 1.798 8.231 3.028l-.756 3.974h-27.346l-.757-3.974c1.892-1.325 4.636-2.461 6.907-3.028v-52.233c-2.271-.567-5.015-1.703-6.907-3.028l.757-3.974h27.062c16.274 0 25.926 7.57 25.926 20.912 0 13.247-9.652 20.912-25.926 20.912zm11.922-20.912c0-9.084-5.015-14.383-13.626-14.383h-5.487v28.766h5.487c8.611 0 13.626-5.299 13.626-14.383zm59.86 46.271c-19.397 0-32.739-13.626-32.739-33.119 0-20.627 13.531-35.01 32.739-35.01 19.397 0 32.834 13.531 32.834 33.119 0 20.627-13.531 35.01-32.834 35.01zm0-6.529c11.071 0 18.167-10.503 18.167-27.535 0-17.127-7.096-27.536-18.167-27.536-10.976 0-18.167 10.409-18.167 27.536 0 17.032 7.191 27.535 18.167 27.535zm102.503-1.419c2.177.567 4.826 1.798 6.624 3.028l-.663 3.974h-16.842c-7.191-8.8-13.531-19.587-17.978-29.428l-6.34-.189v22.615c2.176.567 4.731 1.798 6.34 3.028l-.663 3.974h-25.548l-.757-3.974c1.893-1.325 4.637-2.461 6.908-3.028v-52.233c-2.271-.567-5.015-1.703-6.908-3.028l.757-3.974h25.548l.663 3.974c-1.609 1.231-4.164 2.461-6.34 3.028v22.426l6.813-.946 11.828-19.114c4.352-7.475 7.475-10.314 12.868-10.314 2.46 0 4.826.851 6.056 1.608v11.072h-11.922l-10.787 16.465c5.393 10.597 12.962 21.857 20.343 31.036zm72.862 0c2.176.567 4.826 1.798 6.623 3.028l-.662 3.974h-16.842c-7.191-8.8-13.531-19.587-17.978-29.428l-6.34-.189v22.615c2.176.567 4.731 1.798 6.34 3.028l-.663 3.974h-25.547l-.758-3.974c1.893-1.325 4.637-2.461 6.907-3.028v-52.233c-2.27-.567-5.014-1.703-6.907-3.028l.758-3.974h25.547l.663 3.974c-1.609 1.231-4.164 2.461-6.34 3.028v22.426l6.813-.946 11.827-19.114c4.352-7.475 7.475-10.314 12.869-10.314 2.46 0 4.825.851 6.055 1.608v11.072H528.37l-10.787 16.465c5.394 10.597 12.964 21.857 20.344 31.036zm48.21 7.948c-19.398 0-32.739-13.626-32.739-33.119 0-20.627 13.531-35.01 32.739-35.01 19.397 0 32.834 13.531 32.834 33.119 0 20.627-13.531 35.01-32.834 35.01zm0-6.529c11.071 0 18.167-10.503 18.167-27.535 0-17.127-7.096-27.536-18.167-27.536-10.976 0-18.167 10.409-18.167 27.536 0 17.032 7.191 27.535 18.167 27.535z" fill="#fff"/></g><defs><clipPath id="clip0_8330_9870"><path fill="#fff" d="M0 0h737v258H0z"/></clipPath></defs></svg>
